X: 1
%%etbk:tnset id:1,pos:1,rep:3x,ant:
%%etbk:wsite http://www.thesession.org/tunes/display/444
%%etbk:video src:ytube,cde:QQ5FJl_mH8Q,desc:
%%etbk:pldat 2016-07-15T13:50,2016-05-25T15:06,2016-03-14T17:58,2016-02-10T17:44,2015-11-24T18:28,2015-10-13T17:50,2015-05-28T18:45,2015-03-23T18:12,2015-01-18T10:51,2015-01-08T19:13,2014-12-31T14:43,2014-12-11T18:07,2014-09-22T18:08,2014-09-16T18:08,2014-09-11T18:10,2014-05-14T15:22,2014-05-04T10:38,2014-04-12T15:59,2014-03-25T15:41,2014-02-15T15:29,2014-02-07T15:02,2013-11-17T14:52,2013-11-03T14:52,2013-10-05T14:41,2013-08-28T15:21,2013-05-21T15:26,2013-05-10T16:22,2013-05-01T17:06
T: Terry 'Cuz' Teehan's
Z: Piano Box Version by Martin Fleischmann
H: Created 2013-02-19 /  Last Modified 2013-02-19
M: 4/4
L: 1/8
R: Reel
K: Emin
|: "em"!2!B3A B{d}BAB | "bm"!4!d!2!B!1!A!3!F !1!D!2!E!3!F!4!A | "em"!5!B2!2!BA B{d}BAB | "bm"!4!d!2!B!1!A!2!F "em"!1!E4 :|
|: "em"!2!B!5!e!2!ef !4!g2 fe | "D"!1!d2 !2!B!4!d !1!AA!2!F!1!A |1 "em"!2!B!5!e!2!ef !4!g{a}gfe | "bm"!1!d!2!B!1!A!2!F "em"!1!E4 :|2 "em"!2!B!5!e!5!e!4!d !2!B!4!d!1!A!3!F| "bm"!1!D!2!E{G}ED "em"!2!E4||


